X: 12451
T: Farewell To Carlingford
R: reel
M: 4/4
K: Cmajor
EF|G2C2A2GF|G2 EDC2FG|A2A2AGF2|G6 EG|
c2G2B2A2|G2EDC2CD|E2E2EDC2|G6EF|
G2C2A2GF|G2EDC2A2|G2E2G2c2|B3AG2AB|
c2edc2GE|~F2EFG4-|G2 DEF2E2|D2C2G4|DE F2E2D2|G2C6||

